jimu.js/css/images/jump_to_top.svg

<?xml version="1.0" encoding="UTF-8"?>
<svg width="16px" height="16px" viewBox="0 0 16 16" version="1.1" xmlns="http://www.w3.org/2000/svg" xmlns:xlink="http://www.w3.org/1999/xlink">
    <title>icon_esc_16_black</title>
    <g id="SQL" stroke="none" stroke-width="1" fill="none" fill-rule="evenodd">
        <g id="17351" transform="translate(-484.000000, -633.000000)" fill-rule="nonzero">
            <g id="Group-Copy" transform="translate(482.000000, 631.000000)">
                <g id="icon_esc_16_black" transform="translate(2.000000, 2.000000)">
                    <rect id="Rectangle" fill="#000000" opacity="0" x="0" y="0" width="16" height="16"></rect>
                    <path d="M11.5333333,4.28666667 L10.5933333,5.22666667 L12.7,7.33333333 L5.75333333,7.33333333 L5.75333333,8.66666667 L12.6866667,8.66666667 L10.58,10.7733333 L11.52,11.7133333 L14.7733333,8.46666667 L14.7733333,7.52 L11.5333333,4.28666667 Z M8.10666667,12.3333333 L2.56,12.3333333 L2.56,3.66666667 L8.11333333,3.66666667 L8.11333333,5.66666667 L9.44666667,5.66666667 L9.44666667,3.66666667 C9.44666667,3.31304468 9.30619089,2.97390613 9.05614238,2.72385762 C8.80609387,2.47380911 8.46695532,2.33333333 8.11333333,2.33333333 L2.56,2.33333333 C2.20637801,2.33333333 1.86723946,2.47380912 1.61719096,2.72385762 C1.36714245,2.97390613 1.22666667,3.31304468 1.22666667,3.66666667 L1.22666667,12.3333333 C1.22666667,12.6869553 1.36714245,13.0260939 1.61719096,13.2761424 C1.86723946,13.5261909 2.20637801,13.6666667 2.56,13.6666667 L8.11333333,13.6666667 C8.46695532,13.6666667 8.80609387,13.5261909 9.05614238,13.2761424 C9.30619089,13.0260939 9.44666667,12.6869553 9.44666667,12.3333333 L9.44666667,10.3333333 L8.11333333,10.3333333 L8.10666667,12.3333333 Z" id="Shape" fill="#FFFFFF"></path>
                </g>
            </g>
        </g>
    </g>
</svg>

<svg width="16" height="16" xmlns="http://www.w3.org/2000/svg"><path d="M11.533 4.287l-.94.94L12.7 7.333H5.753v1.334h6.934l-2.107 2.106.94.94 3.253-3.246V7.52l-3.24-3.233zm-3.426 8.046H2.56V3.667h5.553v2h1.334v-2a1.333 1.333 0 0 0-1.334-1.334H2.56a1.333 1.333 0 0 0-1.333 1.334v8.666a1.333 1.333 0 0 0 1.333 1.334h5.553a1.333 1.333 0 0 0 1.334-1.334v-2H8.113l-.006 2z" fill="#FFF"/></svg>
